!!!COM: Robert Franz
!!!CNT: Deutscher
!!!TXO: Deutsche 
!!!OTL: Nachtlied
!!!OPS: Op. 28
!!!ONM: No. 3
!!!ONB: Original key: E Major
!!!LYR: Em. Geibel
!!!ENC: Brian Bice
!!!YOR: Vocal Album, G. Schirmer, Inc., 1907
!!!ODT: 1870/
!!NB: Vocal melody and text only encoded.
**kern	**silbe
*clefG2	*
*k[f#c#]	*
*M6/8	*
=0	=0
4.r	.
4r	.
{8A	{Der
=1	=1
4f#	Mond
8e	kommt
(8d	still
8e)	|
8f#	ge-
=2	=2
(4g	-gan-
8a)	|
4b-}	-gen}
{(16a	{mit
16g)	|
=3	=3
(8f#	sei-
8a)	|
8dd	-nem
4ccn	gold'-
8b-	-nen
=4	=4
[4.a	Schein,
8a]}	|}
8r	.
{8g	{da
=5	=5
4fn	schla2ft
8e	in
(8d	hol-
8bn)	|
8a	-dem
=6	=6
(4g#	Pran-
8dd)	|
4cc#}	-gen}
8r	.
=7	=7
{8cc#	{mu2-
8b	-de
8a	die
4g#	Er-
8a#	-de
=8	=8
[4.b	ein.
8b]}	|}
8r	.
{8b	{Im
=9	=9
4e	Traum
8dd	die
4cc#	Wip-
8b	-fel
=10	=10
(4a#	we-
8ee)	|
4dd}	-ben,}
{8cc#	{die
=11	=11
(cc#q	Quel-
8.b	|
16a#)	|
8b	-len
4cc#	rau-
8f#	-schen
=12	=12
[4.dd	sacht,
8dd]}	|}
8r	.
8r	.
=13	=13
{8.a	{sin-
16a	-gen-
8a	-de
8ffn	En-
8ee	-gel
8dd	durch-
=14	=14
(4ccn	-schwe-
8b-)	|
4a}	-ben}
{8a	{die
=15	=15
4ee	blau-
8g	-e
4f#	Ster-
8g	-nen-
=16	=16
[4.a	-nacht.
8a]}	|}
8r	.
{8A	{Und
=17	=17
4f#	auf
8e	den
(8d	Lu2f-
8e)	|
8f#	-ten
=18	=18
(4g	schwan-
8a)	|
4b-}	-ken}
{(16a	{aus
16g)	|
=19	=19
(8f	man-
8a)	|
8dd	-chem
4ccn	treu-
8b-	-en
=20	=20
[4.a	Sinn
8a]}	|}
8r	.
{8g	{viel
=21	=21
4fn	tau-
8e	-send
8d	Lie-
8bn	--bes
8a	-ge
=22	=22
(4g#	-dan-
8dd)	|
4cc#}	-ken}
8r	.
=23	=23
{8cc#	{u2-
8b	-ber
8a	die
4g#	Schla2-
8a#	-fer
=24	=24
[4.b	hin.
8b]}	|}
8r	.
{8b	{Und
=25	=25
8.e	drun-
16e	-ten
8dd	im
4cc#	Thal,
8b	da
=26	=26
(4a#	fun-
8ee)	|
4dd}	keln}
{8cc#	{die
=27	=27
8.b	Fen-
16a#	-ster
8b	von
4cc#	Lieb-
8f#	-chens
=28	=28
[4.dd	Haus;
8dd]}	|}
8r	.
8r	.
=29	=29
{8.a	{ich
16a	a-
8a	-ber
8ffn	bli-
8ee	-cke
8dd	im
=30	=30
(4ccn	Dunk-
8b-)	|
4a}	-len}
8r	.
=31	=31
{4ee	{still
16g	in
16g	die
(8f#	Welt
8dd)	|
(16cc#	hin
16bn)	|
=32	=32
[4.a	-aus
8a]}	|}
8r	.
8r	.
*-	*-
